assets/img/logo-white.svg

<svg width="151" height="40" viewBox="0 0 151 40" fill="none" xmlns="http://www.w3.org/2000/svg">
<path fill-rule="evenodd" clip-rule="evenodd" d="M0 8.43091C0 3.77466 3.80705 0 8.50332 0H25.51C30.2061 0 34.0133 3.77466 34.0133 8.43091C34.0133 8.49411 34.0125 8.55714 34.011 8.62003L34.0133 8.61826V17.3694C34.0133 19.7338 31.7406 20.5908 29.9752 19.0013C28.5735 17.7393 26.6053 16.8618 22.1086 16.8618H8.50332C3.80708 16.8618 0 13.0872 0 8.43091ZM9.82604 6.93209C8.88682 6.93209 8.12539 7.687 8.12539 8.61826C8.12539 9.54951 8.88682 10.3045 9.82604 10.3045C10.7653 10.3045 11.5267 9.54951 11.5267 8.61826C11.5267 7.687 10.7653 6.93209 9.82604 6.93209ZM15.306 8.61826C15.306 7.687 16.0674 6.93209 17.0066 6.93209C17.9459 6.93209 18.7073 7.687 18.7073 8.61826C18.7073 9.54951 17.9459 10.3045 17.0066 10.3045C16.0674 10.3045 15.306 9.54951 15.306 8.61826ZM24.1872 6.93209C23.248 6.93209 22.4866 7.687 22.4866 8.61826C22.4866 9.54951 23.248 10.3045 24.1872 10.3045C25.1265 10.3045 25.8879 9.54951 25.8879 8.61826C25.8879 7.687 25.1265 6.93209 24.1872 6.93209Z" fill="white"/>
<path fill-rule="evenodd" clip-rule="evenodd" d="M34.0133 31.5691C34.0133 36.2254 30.2063 39.9999 25.5101 39.9999H8.50343C3.80719 39.9999 0.00012207 36.2254 0.00012207 31.5691C0.00012207 31.5059 0.000823405 31.4428 0.00221948 31.3799L0.000126467 31.3816V22.3494C0.000126467 20.0378 2.1323 19.2373 3.91707 20.7244C5.51225 22.0536 7.7812 23.1381 11.9048 23.1381H25.5101C30.2063 23.1381 34.0133 26.9128 34.0133 31.5691ZM9.8263 29.6019C8.88704 29.6019 8.12565 30.3568 8.12565 31.2879C8.12565 32.2194 8.88704 32.9742 9.8263 32.9742C10.7656 32.9742 11.5269 32.2194 11.5269 31.2879C11.5269 30.3568 10.7656 29.6019 9.8263 29.6019ZM15.3062 31.2879C15.3062 30.3568 16.0676 29.6019 17.0069 29.6019C17.9461 29.6019 18.7075 30.3568 18.7075 31.2879C18.7075 32.2194 17.9461 32.9742 17.0069 32.9742C16.0676 32.9742 15.3062 32.2194 15.3062 31.2879ZM24.1875 29.6019C23.2482 29.6019 22.4868 30.3568 22.4868 31.2879C22.4868 32.2194 23.2482 32.9742 24.1875 32.9742C25.1267 32.9742 25.8881 32.2194 25.8881 31.2879C25.8881 30.3568 25.1267 29.6019 24.1875 29.6019Z" fill="white"/>
<path d="M58.6032 20.4895V25.5911C57.0794 26.1386 55.8236 26.4124 54.8357 26.4124C52.2235 26.4124 50.0634 25.5828 48.3554 23.9238C47.5514 23.1274 46.9235 22.1984 46.4713 21.1366C46.0359 20.0582 45.8184 18.9715 45.8184 17.8765C45.8184 16.7318 46.0443 15.6202 46.4964 14.5418C46.9653 13.4634 47.5851 12.5344 48.3554 11.7546C50.0634 10.0292 52.173 9.1665 54.685 9.1665C55.9074 9.1665 57.2134 9.44853 58.6032 10.0126V15.164C57.6154 13.9529 56.3512 13.3473 54.8106 13.3473C53.6217 13.3473 52.6168 13.7123 51.7964 14.4423C50.8253 15.3382 50.3394 16.4746 50.3394 17.8516C50.3394 19.1623 50.7916 20.2407 51.6958 21.0868C52.5165 21.85 53.5545 22.2316 54.8106 22.2316C56.2673 22.2316 57.5315 21.6509 58.6032 20.4895Z" fill="white"/>
<path d="M62.7691 26.039V18.1751H59.8555V14.915H69.7016V18.1751H66.7879V26.039H62.7691Z" fill="white"/>
<path d="M79.7095 15.9851V14.915H83.7283V26.039H79.7095V24.8196C78.9392 25.8814 77.7753 26.4123 76.218 26.4123C74.6441 26.4123 73.296 25.8233 72.1739 24.6454C71.1022 23.5172 70.5665 22.1568 70.5665 20.5641C70.5665 18.7391 71.1443 17.2543 72.2995 16.1095C73.3545 15.0643 74.7026 14.5417 76.3437 14.5417C77.7168 14.5417 78.8386 15.0229 79.7095 15.9851ZM77.2477 17.9262C76.578 17.9262 75.9918 18.1668 75.4895 18.6479C74.9538 19.1622 74.6858 19.7677 74.6858 20.4646C74.6858 21.1945 74.9452 21.8001 75.4645 22.2812C76.0002 22.7789 76.603 23.0278 77.273 23.0278C77.9594 23.0278 78.5623 22.7706 79.0813 22.2563C79.5838 21.7586 79.8348 21.1614 79.8348 20.4646C79.8348 19.7512 79.5755 19.1456 79.0562 18.6479C78.5372 18.1668 77.9344 17.9262 77.2477 17.9262Z" fill="white"/>
<path d="M90.5149 24.9691V31.7381H86.4961V14.9153H90.5149V16.1347C91.369 15.0729 92.5159 14.542 93.9562 14.542C95.5302 14.542 96.8615 15.0812 97.9499 16.1596C99.0884 17.2877 99.6579 18.7228 99.6579 20.4648C99.6579 22.24 99.055 23.7082 97.8493 24.8696C96.7943 25.8982 95.5134 26.4125 94.0063 26.4125C92.6165 26.4125 91.4529 25.9314 90.5149 24.9691ZM92.9764 17.9264C92.2733 17.9264 91.6704 18.1753 91.1682 18.673C90.6489 19.1873 90.3895 19.8012 90.3895 20.5146C90.3895 21.1782 90.6489 21.7672 91.1682 22.2815C91.6704 22.7792 92.2733 23.028 92.9764 23.028C93.6965 23.028 94.291 22.7792 94.7599 22.2815C95.2789 21.7672 95.5385 21.1782 95.5385 20.5146C95.5385 19.8012 95.2789 19.1873 94.7599 18.673C94.291 18.1753 93.6965 17.9264 92.9764 17.9264Z" fill="white"/>
<path d="M103.757 26.039V18.1751H100.844V14.915H110.69V18.1751H107.776V26.039H103.757Z" fill="white"/>
<path d="M122.91 9.44043V15.637H129.189V9.44043H133.56V26.0393H129.189V19.3201H122.91V26.0393H118.564V9.44043H122.91Z" fill="white"/>
<path d="M137.084 9.44043H143.866C145.641 9.44043 147.006 9.92986 147.96 10.9087C148.914 11.8709 149.392 13.1152 149.392 14.6416C149.392 16.1015 148.948 17.2546 148.061 18.1007C147.441 18.6814 146.671 19.0629 145.75 19.2454L150.999 26.0393H145.599L141.43 19.6685V26.0393H137.084V9.44043ZM141.43 12.7751V16.8813H142.258C143.196 16.8813 143.899 16.6573 144.368 16.2094C144.737 15.8444 144.921 15.3798 144.921 14.8158C144.921 14.2351 144.728 13.7706 144.343 13.4222C143.908 12.9908 143.213 12.7751 142.258 12.7751H141.43Z" fill="white"/>
</svg>

<svg width="151" height="40" viewBox="0 0 151 40" fill="none" xmlns="http://www.w3.org/2000/svg"><path fill-rule="evenodd" clip-rule="evenodd" d="M0 8.43C0 3.776 3.807 0 8.503 0H25.51c4.696 0 8.503 3.775 8.503 8.43 0 .064 0 .127-.002.19l.002-.002v8.751c0 2.365-2.272 3.222-4.038 1.632-1.402-1.262-3.37-2.14-7.866-2.14H8.503C3.807 16.862 0 13.088 0 8.432Zm9.826-1.498c-.94 0-1.7.755-1.7 1.686 0 .932.76 1.687 1.7 1.687s1.7-.755 1.7-1.687c0-.931-.76-1.686-1.7-1.686Zm5.48 1.686c0-.931.761-1.686 1.7-1.686.94 0 1.701.755 1.701 1.686 0 .932-.761 1.687-1.7 1.687-.94 0-1.701-.755-1.701-1.687Zm8.881-1.686c-.939 0-1.7.755-1.7 1.686 0 .932.761 1.687 1.7 1.687.94 0 1.7-.755 1.7-1.687 0-.931-.76-1.686-1.7-1.686ZM34.013 31.57c0 4.655-3.807 8.43-8.503 8.43H8.503C3.807 40 0 36.225 0 31.57c0-.064 0-.127.002-.19L0 31.382v-9.033c0-2.311 2.132-3.112 3.917-1.625 1.595 1.33 3.864 2.414 7.988 2.414H25.51c4.696 0 8.503 3.775 8.503 8.431ZM9.826 29.601c-.939 0-1.7.755-1.7 1.686 0 .931.761 1.686 1.7 1.686.94 0 1.7-.755 1.7-1.686 0-.931-.76-1.686-1.7-1.686Zm5.48 1.686c0-.931.762-1.686 1.7-1.686.94 0 1.701.755 1.701 1.686 0 .931-.76 1.686-1.7 1.686s-1.7-.755-1.7-1.686Zm8.882-1.686c-.94 0-1.701.755-1.701 1.686 0 .931.761 1.686 1.7 1.686.94 0 1.701-.755 1.701-1.686 0-.931-.761-1.686-1.7-1.686Z" fill="#fff"/><path d="M58.603 20.49v5.101c-1.524.548-2.78.821-3.767.821-2.612 0-4.773-.83-6.48-2.488a8.655 8.655 0 0 1-1.885-2.787 8.644 8.644 0 0 1-.653-3.26c0-1.145.226-2.257.678-3.335a9.06 9.06 0 0 1 1.86-2.787c1.707-1.726 3.817-2.589 6.329-2.589 1.222 0 2.528.283 3.918.847v5.151c-.988-1.211-2.252-1.817-3.792-1.817-1.19 0-2.194.365-3.015 1.095-.97.896-1.457 2.033-1.457 3.41 0 1.31.453 2.389 1.357 3.235.82.763 1.858 1.145 3.115 1.145 1.456 0 2.72-.581 3.792-1.742ZM62.77 26.039v-7.864h-2.915v-3.26h9.847v3.26h-2.914v7.864h-4.019ZM79.71 15.985v-1.07h4.018v11.124H79.71v-1.22c-.77 1.062-1.935 1.593-3.492 1.593-1.574 0-2.922-.589-4.044-1.767-1.072-1.128-1.608-2.488-1.608-4.08 0-1.826.578-3.31 1.733-4.456 1.055-1.045 2.404-1.567 4.045-1.567 1.373 0 2.495.48 3.366 1.443Zm-2.462 1.941c-.67 0-1.256.24-1.758.722-.536.514-.804 1.12-.804 1.817 0 .73.26 1.335.778 1.816.536.498 1.139.747 1.809.747.686 0 1.29-.257 1.808-.772a2.432 2.432 0 0 0 .754-1.791c0-.714-.26-1.32-.779-1.817-.519-.481-1.122-.722-1.808-.722ZM90.515 24.97v6.768h-4.019V14.915h4.019v1.22c.854-1.062 2-1.593 3.441-1.593 1.574 0 2.906.54 3.994 1.618 1.138 1.128 1.708 2.563 1.708 4.305 0 1.775-.603 3.243-1.809 4.405-1.055 1.028-2.336 1.543-3.843 1.543-1.39 0-2.553-.482-3.491-1.444Zm2.461-7.044c-.703 0-1.306.25-1.808.747-.52.514-.779 1.128-.779 1.842 0 .663.26 1.252.78 1.767a2.477 2.477 0 0 0 1.807.746c.72 0 1.315-.249 1.784-.746.519-.515.778-1.104.778-1.767 0-.714-.26-1.328-.778-1.842-.469-.498-1.064-.747-1.784-.747ZM103.757 26.039v-7.864h-2.913v-3.26h9.846v3.26h-2.914v7.864h-4.019ZM122.91 9.44v6.197h6.279V9.44h4.371v16.6h-4.371v-6.72h-6.279v6.72h-4.346V9.44h4.346ZM137.084 9.44h6.782c1.775 0 3.14.49 4.094 1.469.954.962 1.432 2.206 1.432 3.733 0 1.46-.444 2.613-1.331 3.459-.62.58-1.39.962-2.311 1.144l5.249 6.794h-5.4l-4.169-6.37v6.37h-4.346V9.44Zm4.346 3.335v4.106h.828c.938 0 1.641-.224 2.11-.672.369-.365.553-.83.553-1.393 0-.58-.193-1.045-.578-1.394-.435-.431-1.13-.647-2.085-.647h-.828Z" fill="#fff"/></svg>
